;FLAVOR:UltiGCode
;TIME:14650
;MATERIAL:16265
;MATERIAL2:0
;NOZZLE_DIAMETER:0.4
;MINX:63.022
;MINY:87.305
;MINZ:0.27
;MAXX:160.49
;MAXY:135.723
;MAXZ:29.27
;TARGET_MACHINE.NAME:Ultimaker 2+
;Generated with Cura_SteamEngine 5.5.0
M82 ;absolute extrusion mode
G0 F3000 Y50 ;avoid prime blob
G92 E0
G92 E0
G10
;LAYER_COUNT:291
;LAYER:0
M107
G0 F7200 X67.301 Y88.127 Z0.27
;TYPE:SKIRT
G11
G1 F1800 X70.091 Y87.31 E0.31397
G1 X73.273 Y87.311 E0.65763
G1 X75.819 Y88.143 E0.94691
G1 X76.747 Y89.03 E1.08555
G1 X78.721 Y88.39 E1.30967
G1 X83.541 Y88.39 E1.83023
G1 X85.312 Y88.991 E2.03221
G1 X86.641 Y87.931 E2.2158
G1 X89.248 Y87.31 E2.50524
G1 X125.71 Y87.305 E6.44313
G1 X128.38 Y88.167 E6.74615
G1 X129.281 Y89.026 E6.88059
G1 X131.244 Y88.39 E7.10345
G1 X136.096 Y88.39 E7.62746
G1 X137.875 Y88.995 E7.8304
G1 X139.215 Y87.933 E8.01506
G1 X141.794 Y87.314 E8.3015
G1 X153.66 Y87.31 E9.58303
G1 X155.597 Y87.73 E9.79709
G1 X157.417 Y88.84 E10.02732
G1 X159.499 Y90.986 E10.35024
G1 X160.49 Y94.043 E10.69731
G1 X160.49 Y128.878 E14.45949
G1 X160.03 Y130.96 E14.68977
G1 X158.913 Y132.662 E14.90964
G1 X156.824 Y134.688 E15.22393
G1 X153.765 Y135.69 E15.57157
G1 X141.612 Y135.723 E16.8841
G1 X139.044 Y135.075 E17.17014
G1 X137.749 Y133.977 E17.3535
G1 X135.794 Y134.61 E17.57543
G1 X131.33 Y134.61 E18.05754
G1 X129.528 Y134.218 E18.25671
G1 X129.147 Y134.024 E18.30289
G1 X127.834 Y135.069 E18.48412
G1 X125.227 Y135.69 E18.77356
G1 X88.771 Y135.69 E22.7108
G1 X86.104 Y134.828 E23.01351
G1 X85.208 Y133.972 E23.14734
G1 X83.239 Y134.61 E23.37088
G1 X78.81 Y134.61 E23.84921
G1 X77.008 Y134.218 E24.04838
G1 X76.627 Y134.024 E24.09455
G1 X75.314 Y135.069 E24.27579
G1 X72.707 Y135.69 E24.56522
G1 X69.721 Y135.69 E24.88771
G1 X67.016 Y134.789 E25.19563
G1 X64.456 Y132.256 E25.58457
G1 X63.379 Y129.501 E25.90404
G1 X63.023 Y125.282 E26.36131
G1 X63.022 Y97.737 E29.33617
G1 X63.399 Y93.137 E29.83464
G1 X64.54 Y90.48 E30.14693
G1 X67.301 Y88.127 E30.53872
G0 F7200 X67.496 Y88.487
G1 F1800 X70.148 Y87.71 E30.83717
G1 X73.21 Y87.711 E31.16787
G1 X75.609 Y88.495 E31.44045
G1 X76.644 Y89.484 E31.59506
G1 X78.785 Y88.79 E31.83813
G1 X83.474 Y88.79 E32.34454
G1 X85.391 Y89.441 E32.56319
G1 X86.822 Y88.299 E32.76092
G1 X89.295 Y87.71 E33.03547
G1 X125.646 Y87.705 E36.96138
G1 X128.17 Y88.52 E37.24783
G1 X129.177 Y89.48 E37.39809
G1 X131.305 Y88.79 E37.63969
G1 X136.029 Y88.79 E38.14988
G1 X137.952 Y89.444 E38.36925
G1 X139.393 Y88.302 E38.56782
G1 X141.841 Y87.714 E38.83973
G1 X153.617 Y87.71 E40.11154
G1 X155.448 Y88.107 E40.31388
G1 X157.163 Y89.153 E40.53083
G1 X159.147 Y91.198 E40.83855
G1 X160.09 Y94.107 E41.16882
G1 X160.09 Y128.833 E44.91923
G1 X159.655 Y130.803 E45.13711
G1 X158.602 Y132.407 E45.34434
G1 X156.612 Y134.337 E45.64373
G1 X153.702 Y135.29 E45.97444
G1 X141.662 Y135.323 E47.27476
G1 X139.232 Y134.71 E47.54542
G1 X137.838 Y133.528 E47.74281
G1 X135.73 Y134.21 E47.98209
G1 X131.374 Y134.21 E48.45254
G1 X129.613 Y133.827 E48.64718
G1 X129.108 Y133.544 E48.7097
G1 X127.655 Y134.701 E48.91029
G1 X125.18 Y135.29 E49.18506
G1 X88.835 Y135.29 E53.11032
G1 X86.313 Y134.475 E53.39656
G1 X85.311 Y133.518 E53.54621
G1 X83.175 Y134.21 E53.7887
G1 X78.854 Y134.21 E54.25537
G1 X77.093 Y133.827 E54.45
G1 X76.588 Y133.544 E54.51252
G1 X75.135 Y134.701 E54.71312
G1 X72.66 Y135.29 E54.98788
G1 X69.787 Y135.29 E55.29817
G1 X67.229 Y134.438 E55.58935
G1 X64.799 Y132.033 E55.95859
G1 X63.773 Y129.409 E56.26288
G1 X63.422 Y125.248 E56.71386
G1 X63.421 Y97.77 E59.68149
G1 X63.793 Y93.235 E60.17291
G1 X64.871 Y90.723 E60.46813
G1 X67.496 Y88.487 E60.84054
G0 F7200 X67.688 Y88.848
G1 F1800 X70.206 Y88.11 E61.12393
G1 X73.147 Y88.111 E61.44156
G1 X75.399 Y88.847 E61.69743
G1 X76.541 Y89.938 E61.868
G1 X78.849 Y89.19 E62.13003
G1 X83.407 Y89.19 E62.6223
G1 X85.469 Y89.89 E62.85747
G1 X87.002 Y88.667 E63.06927
G1 X89.342 Y88.11 E63.32905
G1 X125.582 Y88.105 E67.24297
G1 X127.96 Y88.873 E67.51286
G1 X129.073 Y89.934 E67.67893
G1 X131.369 Y89.19 E67.93959
G1 X135.962 Y89.19 E68.43563
G1 X138.029 Y89.893 E68.67143
G1 X139.571 Y88.671 E68.88392
G1 X141.888 Y88.114 E69.14128
G1 X153.574 Y88.11 E70.40337
G1 X155.299 Y88.484 E70.594
G1 X156.909 Y89.466 E70.79767
G1 X158.795 Y91.41 E71.09019
G1 X159.69 Y94.171 E71.40365
G1 X159.69 Y128.788 E75.14229
G1 X159.28 Y130.646 E75.34778
G1 X158.291 Y132.152 E75.54237
G1 X156.401 Y133.985 E75.82672
G1 X153.638 Y134.89 E76.14072
G1 X141.712 Y134.923 E77.42873
G1 X139.42 Y134.345 E77.68402
G1 X137.927 Y133.078 E77.8955
G1 X135.666 Y133.81 E78.15216
G1 X131.418 Y133.81 E78.61095
G1 X129.698 Y133.436 E78.80105
G1 X129.077 Y133.057 E78.87962
G1 X127.476 Y134.333 E79.10073
G1 X125.133 Y134.89 E79.36082
G1 X88.899 Y134.89 E83.2741
G1 X86.522 Y134.122 E83.54388
G1 X85.414 Y133.064 E83.70934
G1 X83.111 Y133.81 E83.97078
G1 X78.898 Y133.81 E84.42579
G1 X77.178 Y133.436 E84.61589
G1 X76.557 Y133.057 E84.69446
G1 X74.956 Y134.333 E84.91557
G1 X72.613 Y134.89 E85.17566
G1 X69.853 Y134.89 E85.47374
G1 X67.442 Y134.087 E85.74819
G1 X65.142 Y131.81 E86.09773
G1 X64.167 Y129.317 E86.38683
G1 X63.821 Y125.214 E86.83153
G1 X63.82 Y97.803 E89.79192
G1 X64.187 Y93.333 E90.2763
G1 X65.203 Y90.965 E90.55459
G1 X67.688 Y88.848 E90.90716
G0 F7200 X67.881 Y89.208
G1 F1800 X70.263 Y88.51 E91.17523
G1 X73.084 Y88.511 E91.4799
G1 X75.189 Y89.199 E91.71907
G1 X76.438 Y90.392 E91.90561
G1 X78.913 Y89.59 E92.1866
G1 X83.34 Y89.59 E92.66471
G1 X85.548 Y90.34 E92.91656
G1 X87.183 Y89.035 E93.14249
G1 X89.389 Y88.51 E93.38739
G1 X125.518 Y88.505 E97.28932
G1 X127.75 Y89.226 E97.54264
G1 X128.969 Y90.388 E97.72453
G1 X131.433 Y89.59 E98.00425
G1 X135.895 Y89.59 E98.48614
G1 X138.106 Y90.342 E98.73836
G1 X139.751 Y89.039 E98.96501
G1 X141.935 Y88.514 E99.2076
G1 X153.531 Y88.51 E100.45996
G1 X155.15 Y88.861 E100.63888
G1 X156.655 Y89.779 E100.82927
G1 X158.443 Y91.622 E101.10659
G1 X159.29 Y94.235 E101.40325
G1 X159.29 Y128.743 E105.13012
G1 X158.905 Y130.489 E105.32321
G1 X157.98 Y131.897 E105.50516
G1 X156.189 Y133.634 E105.77461
G1 X153.575 Y134.49 E106.07168
G1 X141.762 Y134.523 E107.34749
G1 X139.608 Y133.98 E107.5874
G1 X138.016 Y132.628 E107.81297
G1 X135.602 Y133.41 E108.08702
G1 X131.462 Y133.41 E108.53414
G1 X129.849 Y133.059 E108.71242
G1 X129.047 Y132.57 E108.81387
G1 X127.296 Y133.965 E109.05565
G1 X125.087 Y134.49 E109.30087
G1 X88.963 Y134.49 E113.20226
G1 X86.731 Y133.769 E113.45558
G1 X85.517 Y132.61 E113.63685
G1 X83.047 Y133.41 E113.91725
G1 X78.942 Y133.41 E114.36059
G1 X77.329 Y133.059 E114.53887
G1 X76.527 Y132.57 E114.64032
G1 X74.776 Y133.965 E114.88211
G1 X72.567 Y134.49 E115.12732
G1 X69.919 Y134.49 E115.41331
G1 X67.655 Y133.736 E115.67102
G1 X65.485 Y131.587 E116.00086
G1 X64.561 Y129.225 E116.27478
G1 X64.22 Y125.18 E116.71319
G1 X64.219 Y97.836 E119.66634
G1 X64.581 Y93.431 E120.14368
G1 X65.535 Y91.207 E120.40504
G1 X67.881 Y89.208 E120.73792
G0 F7200 X68.074 Y89.568
G1 F1800 X70.32 Y88.91 E120.99068
G1 X73.021 Y88.911 E121.28239
G1 X74.979 Y89.551 E121.50486
G1 X76.416 Y90.923 E121.71943
G1 X76.69 Y90.731 E121.75557
G1 X78.977 Y89.99 E122.01521
G1 X83.273 Y89.99 E122.47917
G1 X85.279 Y90.672 E122.708
G1 X85.538 Y90.861 E122.74263
G1 X87.364 Y89.403 E122.99499
G1 X89.436 Y88.91 E123.22501
G1 X125.454 Y88.905 E127.11496
G1 X127.54 Y89.579 E127.35171
G1 X128.943 Y90.916 E127.56102
G1 X129.21 Y90.731 E127.5961
G1 X131.497 Y89.99 E127.85574
G1 X135.828 Y89.99 E128.32349
G1 X137.834 Y90.672 E128.55231
G1 X138.094 Y90.862 E128.58709
G1 X139.931 Y89.407 E128.84018
G1 X141.982 Y88.914 E129.068
G1 X153.488 Y88.91 E130.31065
G1 X155.001 Y89.238 E130.47785
G1 X156.401 Y90.092 E130.65496
G1 X158.091 Y91.834 E130.91708
G1 X158.89 Y94.299 E131.19694
G1 X158.89 Y128.698 E134.91203
G1 X158.53 Y130.332 E135.09273
G1 X157.669 Y131.642 E135.26203
G1 X155.977 Y133.283 E135.5166
G1 X153.512 Y134.09 E135.79672
G1 X141.812 Y134.123 E137.06033
G1 X139.796 Y133.615 E137.28486
G1 X138.042 Y132.126 E137.53334
G1 X137.823 Y132.27 E137.56165
G1 X135.538 Y133.01 E137.82105
G1 X131.506 Y133.01 E138.25651
G1 X129.998 Y132.682 E138.42318
G1 X129.016 Y132.083 E138.54741
G1 X127.116 Y133.597 E138.80979
G1 X125.041 Y134.09 E139.04013
G1 X89.027 Y134.09 E142.92964
G1 X86.94 Y133.416 E143.1665
G1 X85.54 Y132.08 E143.3755
G1 X85.268 Y132.27 E143.41133
G1 X82.983 Y133.01 E143.67073
G1 X78.986 Y133.01 E144.1024
G1 X77.478 Y132.682 E144.26907
G1 X76.496 Y132.083 E144.3933
G1 X74.596 Y133.597 E144.65568
G1 X72.521 Y134.09 E144.88602
G1 X69.985 Y134.09 E145.15991
G1 X67.87 Y133.386 E145.40065
G1 X65.826 Y131.361 E145.71139
G1 X64.955 Y129.136 E145.96945
G1 X64.619 Y125.146 E146.4019
G1 X64.618 Y97.869 E149.34781
G1 X64.975 Y93.529 E149.81812
G1 X65.867 Y91.449 E150.06254
G1 X68.074 Y89.568 E150.37572
G0 F7200 X68.266 Y89.929
G1 F1800 X70.378 Y89.31 E150.61341
G1 X72.958 Y89.311 E150.89205
G1 X74.769 Y89.903 E151.09783
G1 X76.398 Y91.458 E151.34105
G1 X76.813 Y91.112 E151.3994
G1 X79.041 Y90.39 E151.65234
G1 X83.206 Y90.39 E152.10216
G1 X85.15 Y91.051 E152.32392
G1 X85.59 Y91.441 E152.38742
G1 X85.8 Y91.161 E152.42522
G1 X87.544 Y89.771 E152.66608
G1 X89.483 Y89.31 E152.88133
G1 X125.39 Y89.305 E156.75928
G1 X127.332 Y89.932 E156.97968
G1 X128.924 Y91.451 E157.21732
G1 X129.333 Y91.112 E157.2747
G1 X131.561 Y90.39 E157.52764
G1 X135.761 Y90.39 E157.98124
G1 X137.705 Y91.051 E158.203
G1 X138.147 Y91.443 E158.2668
G1 X138.359 Y91.159 E158.30508
G1 X140.111 Y89.775 E158.54621
G1 X142.029 Y89.314 E158.75925
G1 X153.445 Y89.31 E159.99218
G1 X154.852 Y89.615 E160.14767
G1 X156.147 Y90.405 E160.3115
G1 X157.739 Y92.046 E160.55842
G1 X158.49 Y94.363 E160.82147
G1 X158.49 Y128.653 E164.52479
G1 X158.155 Y130.175 E164.6931
G1 X157.358 Y131.387 E164.84976
G1 X155.765 Y132.932 E165.08943
G1 X153.449 Y133.69 E165.35262
G1 X141.862 Y133.723 E166.60402
G1 X139.984 Y133.25 E166.81318
G1 X138.239 Y131.769 E167.06036
G1 X138.095 Y131.563 E167.08751
G1 X137.7 Y131.889 E167.14282
G1 X135.474 Y132.61 E167.39552
G1 X131.55 Y132.61 E167.81932
G1 X130.147 Y132.305 E167.97438
G1 X128.901 Y131.545 E168.132
G1 X128.682 Y131.838 E168.17151
G1 X126.936 Y133.229 E168.4126
G1 X124.995 Y133.69 E168.62806
G1 X89.091 Y133.69 E172.5057
G1 X87.149 Y133.063 E172.72609
G1 X85.558 Y131.545 E172.96358
G1 X85.145 Y131.889 E173.02163
G1 X82.919 Y132.61 E173.27434
G1 X79.03 Y132.61 E173.69435
G1 X77.627 Y132.305 E173.84941
G1 X76.381 Y131.545 E174.00704
G1 X76.162 Y131.838 E174.04655
G1 X74.416 Y133.229 E174.28764
G1 X72.475 Y133.69 E174.5031
G1 X70.051 Y133.69 E174.76489
G1 X68.085 Y133.036 E174.98866
G1 X66.167 Y131.135 E175.28031
G1 X65.349 Y129.047 E175.5225
G1 X65.018 Y125.112 E175.94898
G1 X65.017 Y97.902 E178.88766
G1 X65.369 Y93.627 E179.35092
G1 X66.199 Y91.691 E179.57842
G1 X68.266 Y89.929 E179.87175
G0 F7200 X68.458 Y90.29
G1 F1800 X70.436 Y89.71 E180.09437
G1 X72.895 Y89.711 E180.35995
G1 X74.559 Y90.255 E180.54902
G1 X76.12 Y91.745 E180.78208
G1 X76.347 Y92.065 E180.82445
G1 X76.936 Y91.493 E180.91312
G1 X79.105 Y90.79 E181.15937
G1 X83.139 Y90.79 E181.59504
G1 X85.021 Y91.43 E181.80973
G1 X85.647 Y92.074 E181.90673
G1 X86.049 Y91.474 E181.98473
G1 X87.724 Y90.139 E182.21605
G1 X89.529 Y89.71 E182.41642
G1 X125.326 Y89.705 E186.2825
G1 X127.122 Y90.285 E186.48633
G1 X128.638 Y91.729 E186.71245
G1 X128.871 Y92.061 E186.75625
G1 X129.456 Y91.493 E186.84431
G1 X131.625 Y90.79 E187.09056
G1 X135.694 Y90.79 E187.53001
G1 X137.576 Y91.43 E187.7447
G1 X138.205 Y92.078 E187.84223
G1 X138.607 Y91.473 E187.92068
G1 X140.29 Y90.143 E188.15235
G1 X142.076 Y89.714 E188.35073
G1 X153.402 Y89.71 E189.57393
G1 X154.703 Y89.992 E189.71771
G1 X155.893 Y90.718 E189.86826
G1 X157.387 Y92.258 E190.09998
G1 X158.09 Y94.427 E190.34623
G1 X158.09 Y128.608 E194.03778
G1 X157.78 Y130.018 E194.19369
G1 X157.047 Y131.132 E194.33772
G1 X155.553 Y132.581 E194.56249
G1 X153.386 Y133.29 E194.80874
G1 X141.912 Y133.323 E196.04793
G1 X140.172 Y132.885 E196.24171
G1 X138.498 Y131.464 E196.47886
G1 X138.188 Y130.915 E196.54695
G1 X137.577 Y131.508 E196.63891
G1 X135.41 Y132.21 E196.88492
G1 X131.594 Y132.21 E197.29705
G1 X130.296 Y131.928 E197.4405
G1 X129.108 Y131.203 E197.59081
G1 X128.836 Y130.923 E197.63297
G1 X128.433 Y131.525 E197.71121
G1 X126.756 Y132.861 E197.94277
G1 X124.949 Y133.29 E198.14335
G1 X89.155 Y133.29 E202.00911
G1 X87.359 Y132.71 E202.21294
G1 X85.843 Y131.266 E202.43905
G1 X85.611 Y130.937 E202.48253
G1 X85.022 Y131.508 E202.57113
G1 X82.855 Y132.21 E202.81714
G1 X79.074 Y132.21 E203.22548
G1 X77.776 Y131.928 E203.36894
G1 X76.588 Y131.203 E203.51925
G1 X76.316 Y130.923 E203.56141
G1 X75.913 Y131.525 E203.63965
G1 X74.236 Y132.861 E203.87121
G1 X72.429 Y133.29 E204.07179
G1 X70.117 Y133.29 E204.32149
G1 X68.299 Y132.685 E204.52842
G1 X66.508 Y130.911 E204.80067
G1 X65.743 Y128.958 E205.0272
G1 X65.417 Y125.079 E205.44761
G1 X65.416 Y97.935 E208.37916
G1 X65.763 Y93.724 E208.83549
G1 X66.53 Y91.933 E209.04591
G1 X68.458 Y90.29 E209.31948
G0 F7200 X68.652 Y90.65
G1 F1800 X70.494 Y90.11 E209.52679
G1 X72.832 Y90.111 E209.7793
G1 X74.349 Y90.607 E209.95167
G1 X75.844 Y92.034 E210.17487
G1 X76.284 Y92.684 E210.25965
G1 X77.148 Y91.845 E210.38971
G1 X79.169 Y91.19 E210.61916
G1 X83.072 Y91.19 E211.04068
G1 X84.801 Y91.778 E211.23792
G1 X85.704 Y92.707 E211.37784
G1 X86.345 Y91.749 E211.50233
G1 X87.904 Y90.507 E211.7176
G1 X89.575 Y90.11 E211.90309
G1 X125.262 Y90.105 E215.75728
G1 X126.912 Y90.638 E215.94455
G1 X128.362 Y92.019 E216.16081
G1 X128.806 Y92.682 E216.24699
G1 X129.668 Y91.845 E216.37675
G1 X131.689 Y91.19 E216.6062
G1 X135.627 Y91.19 E217.0315
G1 X137.356 Y91.778 E217.22874
G1 X138.264 Y92.712 E217.36942
G1 X138.904 Y91.748 E217.49439
G1 X140.469 Y90.511 E217.70983
G1 X142.123 Y90.114 E217.89353
G1 X153.359 Y90.11 E219.10702
G1 X154.554 Y90.369 E219.23908
G1 X155.639 Y91.031 E219.37635
G1 X157.035 Y92.47 E219.59287
G1 X157.69 Y94.491 E219.82232
G1 X157.69 Y128.563 E223.5021
G1 X157.405 Y129.861 E223.64562
G1 X156.736 Y130.877 E223.777
G1 X155.341 Y132.23 E223.98688
G1 X153.323 Y132.89 E224.21619
G1 X141.962 Y132.923 E225.44318
G1 X140.36 Y132.52 E225.62159
G1 X138.811 Y131.205 E225.84103
G1 X138.281 Y130.267 E225.95739
G1 X137.365 Y131.156 E226.09525
G1 X135.346 Y131.81 E226.32445
G1 X131.638 Y131.81 E226.72492
G1 X130.445 Y131.551 E226.85676
G1 X129.362 Y130.89 E226.99379
G1 X128.779 Y130.289 E227.08422
G1 X128.135 Y131.251 E227.20925
G1 X126.576 Y132.493 E227.42452
G1 X124.903 Y132.89 E227.61022
G1 X89.219 Y132.89 E231.46409
G1 X87.569 Y132.357 E231.65136
G1 X86.119 Y130.976 E231.86762
G1 X85.677 Y130.317 E231.95332
G1 X84.812 Y131.155 E232.08339
G1 X82.791 Y131.81 E232.31283
G1 X79.118 Y131.81 E232.70952
G1 X77.925 Y131.551 E232.84136
G1 X76.842 Y130.89 E232.97839
G1 X76.259 Y130.289 E233.06882
G1 X75.615 Y131.251 E233.19385
G1 X74.056 Y132.493 E233.40912
G1 X72.383 Y132.89 E233.59482
G1 X70.183 Y132.89 E233.83242
G1 X68.512 Y132.334 E234.02262
G1 X66.849 Y130.687 E234.2754
G1 X66.137 Y128.869 E234.48626
G1 X65.816 Y125.046 E234.9006
G1 X65.815 Y97.968 E237.82502
G1 X66.157 Y93.821 E238.27442
G1 X66.861 Y92.177 E238.46756
G1 X68.652 Y90.65 E238.72175
G0 F7200 X68.845 Y91.011
G1 F1800 X70.552 Y90.51 E238.91389
G1 X72.769 Y90.511 E239.15332
G1 X74.139 Y90.959 E239.30899
G1 X75.537 Y92.293 E239.51768
G1 X75.878 Y92.797 E239.58341
G1 X76.09 Y93.429 E239.6554
G1 X77.36 Y92.197 E239.84649
G1 X79.233 Y91.59 E240.05913
G1 X83.005 Y91.59 E240.46651
G1 X84.581 Y92.126 E240.64629
G1 X85.761 Y93.34 E240.82913
G1 X86.643 Y92.023 E241.00032
G1 X88.084 Y90.875 E241.1993
G1 X89.621 Y90.51 E241.36991
G1 X125.198 Y90.505 E245.21223
G1 X126.702 Y90.991 E245.38293
G1 X128.055 Y92.28 E245.58475
G1 X128.4 Y92.795 E245.6517
G1 X128.611 Y93.428 E245.72376
G1 X129.88 Y92.197 E245.9147
G1 X131.753 Y91.59 E246.12734
G1 X135.56 Y91.59 E246.5385
G1 X137.136 Y92.126 E246.71828
G1 X138.323 Y93.347 E246.90219
G1 X139.201 Y92.023 E247.07377
G1 X140.648 Y90.879 E247.27299
G1 X142.17 Y90.514 E247.44202
G1 X153.316 Y90.51 E248.64579
G1 X154.405 Y90.746 E248.76613
G1 X155.385 Y91.344 E248.89012
