;FLAVOR:UltiGCode
;TIME:14720
;MATERIAL:16086
;MATERIAL2:0
;NOZZLE_DIAMETER:0.4
;MINX:63.057
;MINY:86.913
;MINZ:0.27
;MAXX:160.54
;MAXY:136.07
;MAXZ:29.27
;TARGET_MACHINE.NAME:Ultimaker 2+
;Generated with Cura_SteamEngine 5.6.0
M82 ;absolute extrusion mode
G0 F3000 Y50 ;avoid prime blob
G92 E0
G92 E0
G10
;LAYER_COUNT:291
;LAYER:0
M107
G0 F7200 X67.351 Y88.121 Z0.27
;TYPE:SKIRT
G11
G1 F1800 X70.11 Y87.31 E0.31058
G1 X73.22 Y87.31 E0.64646
G1 X75.917 Y88.188 E0.95278
G1 X76.804 Y89.027 E1.08464
G1 X78.771 Y88.39 E1.30794
G1 X83.591 Y88.39 E1.8285
G1 X85.362 Y88.991 E2.03048
G1 X86.691 Y87.931 E2.21408
G1 X89.305 Y87.31 E2.50425
G1 X125.745 Y87.31 E6.43977
G1 X128.422 Y88.185 E6.74393
G1 X129.319 Y89.033 E6.87725
G1 X131.287 Y88.39 E7.10085
G1 X136.146 Y88.39 E7.62562
G1 X137.558 Y88.869 E7.78665
G1 X139.339 Y87.542 E8.02652
G1 X142.038 Y86.913 E8.32582
G1 X144.256 Y87.153 E8.56677
G1 X144.878 Y87.297 E8.63572
G1 X153.72 Y87.311 E9.59066
G1 X155.864 Y87.792 E9.82796
G1 X157.554 Y88.926 E10.04777
G1 X159.545 Y90.992 E10.35764
G1 X160.54 Y94.04 E10.70392
G1 X160.54 Y128.869 E14.46545
G1 X160.12 Y130.797 E14.67856
G1 X159.01 Y132.617 E14.90879
G1 X156.873 Y134.69 E15.23034
G1 X153.826 Y135.69 E15.57668
G1 X144.716 Y135.702 E16.56056
G1 X142.986 Y136.07 E16.75159
G1 X140.22 Y135.794 E17.0518
G1 X137.424 Y134.099 E17.40492
G1 X135.844 Y134.61 E17.58426
G1 X131.379 Y134.61 E18.06648
G1 X129.579 Y134.218 E18.26544
G1 X129.199 Y134.025 E18.31147
G1 X127.892 Y135.069 E18.49213
G1 X125.263 Y135.69 E18.78387
G1 X88.844 Y135.69 E22.71713
G1 X86.16 Y134.82 E23.02185
G1 X85.265 Y133.971 E23.15508
G1 X83.289 Y134.61 E23.37937
G1 X78.86 Y134.61 E23.8577
G1 X77.058 Y134.218 E24.05687
G1 X76.677 Y134.024 E24.10304
G1 X75.364 Y135.069 E24.28428
G1 X72.757 Y135.69 E24.57371
G1 X69.51 Y135.69 E24.92438
G1 X67.624 Y135.169 E25.1357
G1 X65.136 Y133.032 E25.48992
G1 X64.412 Y132.065 E25.62038
G1 X63.43 Y129.594 E25.90755
G1 X63.057 Y125.286 E26.37456
G1 X63.091 Y97.131 E29.4153
G1 X63.471 Y93.047 E29.85828
G1 X64.611 Y90.44 E30.16557
G1 X67.351 Y88.121 E30.55325
G0 F7200 X67.543 Y88.482
G1 F1800 X70.169 Y87.71 E30.84886
G1 X73.157 Y87.71 E31.17157
G1 X75.708 Y88.54 E31.46129
G1 X76.702 Y89.481 E31.60912
G1 X78.835 Y88.79 E31.85127
G1 X83.524 Y88.79 E32.35768
G1 X85.441 Y89.441 E32.57633
G1 X86.872 Y88.299 E32.77406
G1 X89.351 Y87.71 E33.04924
G1 X125.682 Y87.71 E36.97299
G1 X128.211 Y88.537 E37.26035
G1 X129.216 Y89.487 E37.40971
G1 X131.35 Y88.79 E37.65217
G1 X136.079 Y88.79 E38.1629
G1 X137.628 Y89.316 E38.33957
G1 X139.511 Y87.913 E38.59318
G1 X142.063 Y87.318 E38.87619
G1 X144.166 Y87.543 E39.10461
G1 X144.831 Y87.697 E39.17833
G1 X153.677 Y87.711 E40.1337
G1 X155.703 Y88.165 E40.35793
G1 X157.294 Y89.233 E40.56488
G1 X159.194 Y91.205 E40.86063
G1 X160.14 Y94.103 E41.18987
G1 X160.14 Y128.825 E44.93984
G1 X159.743 Y130.648 E45.14134
G1 X158.697 Y132.363 E45.35829
G1 X156.66 Y134.339 E45.66479
G1 X153.762 Y135.29 E45.9942
G1 X144.675 Y135.302 E46.97559
G1 X142.965 Y135.666 E47.16441
G1 X140.349 Y135.405 E47.44834
G1 X137.662 Y133.78 E47.78748
G1 X137.513 Y133.649 E47.80891
G1 X135.78 Y134.21 E48.00563
G1 X131.423 Y134.21 E48.47619
G1 X129.664 Y133.827 E48.67061
G1 X129.159 Y133.545 E48.73308
G1 X127.711 Y134.701 E48.93319
G1 X125.218 Y135.29 E49.20984
G1 X88.905 Y135.29 E53.13165
G1 X86.37 Y134.468 E53.41946
G1 X85.367 Y133.517 E53.56874
G1 X83.225 Y134.21 E53.81188
G1 X78.904 Y134.21 E54.27855
G1 X77.143 Y133.827 E54.47318
G1 X76.638 Y133.544 E54.5357
G1 X75.185 Y134.701 E54.7363
G1 X72.71 Y135.29 E55.01106
G1 X69.565 Y135.29 E55.35072
G1 X67.816 Y134.807 E55.54668
G1 X65.43 Y132.757 E55.88642
G1 X64.765 Y131.869 E56.00624
G1 X63.824 Y129.501 E56.28143
G1 X63.456 Y125.251 E56.74215
G1 X63.489 Y97.168 E59.77512
G1 X63.863 Y93.15 E60.21094
G1 X64.941 Y90.684 E60.5016
G1 X67.543 Y88.482 E60.86974
G0 F7200 X67.735 Y88.843
G1 F1800 X70.228 Y88.11 E61.15038
G1 X73.094 Y88.11 E61.45991
G1 X75.497 Y88.892 E61.73283
G1 X76.599 Y89.935 E61.8967
G1 X78.899 Y89.19 E62.15781
G1 X83.457 Y89.19 E62.65007
G1 X85.519 Y89.89 E62.88525
G1 X87.052 Y88.667 E63.09704
G1 X89.397 Y88.11 E63.35735
G1 X125.619 Y88.11 E67.26933
G1 X128 Y88.889 E67.53989
G1 X129.114 Y89.941 E67.70537
G1 X131.413 Y89.19 E67.96657
G1 X136.012 Y89.19 E68.46326
G1 X137.698 Y89.763 E68.65558
G1 X139.683 Y88.284 E68.92292
G1 X142.088 Y87.723 E69.18964
G1 X144.123 Y87.941 E69.41067
G1 X144.785 Y88.097 E69.48413
G1 X153.633 Y88.111 E70.43971
G1 X155.542 Y88.539 E70.651
G1 X157.037 Y89.542 E70.84543
G1 X158.842 Y91.416 E71.12644
G1 X159.74 Y94.166 E71.43887
G1 X159.74 Y128.781 E75.17729
G1 X159.366 Y130.499 E75.36718
G1 X158.384 Y132.109 E75.57086
G1 X156.447 Y133.988 E75.86231
G1 X153.698 Y134.89 E76.17477
G1 X144.634 Y134.902 E77.15369
G1 X142.944 Y135.262 E77.3403
G1 X140.478 Y135.016 E77.60795
G1 X137.869 Y133.438 E77.93725
G1 X137.62 Y133.194 E77.9749
G1 X135.716 Y133.81 E78.19103
G1 X131.467 Y133.81 E78.64992
G1 X129.749 Y133.436 E78.83981
G1 X129.129 Y133.058 E78.91824
G1 X127.531 Y134.333 E79.13902
G1 X125.173 Y134.89 E79.40069
G1 X88.969 Y134.89 E83.31073
G1 X86.578 Y134.115 E83.58218
G1 X85.469 Y133.063 E83.74727
G1 X83.161 Y133.81 E84.00926
G1 X78.948 Y133.81 E84.46427
G1 X77.228 Y133.436 E84.65437
G1 X76.607 Y133.057 E84.73294
G1 X75.006 Y134.333 E84.95405
G1 X72.663 Y134.89 E85.21414
G1 X69.62 Y134.89 E85.54279
G1 X68.008 Y134.445 E85.72339
G1 X65.724 Y132.482 E86.04865
G1 X65.118 Y131.673 E86.15782
G1 X64.218 Y129.408 E86.42104
G1 X63.855 Y125.216 E86.87547
G1 X63.887 Y97.205 E89.90066
G1 X64.255 Y93.25 E90.32965
G1 X65.27 Y90.929 E90.60324
G1 X67.735 Y88.843 E90.95199
G0 F7200 X67.927 Y89.204
G1 F1800 X70.287 Y88.51 E91.21766
G1 X73.031 Y88.51 E91.51401
G1 X75.286 Y89.244 E91.77013
G1 X76.496 Y90.389 E91.95004
G1 X78.963 Y89.59 E92.2301
G1 X83.39 Y89.59 E92.70822
G1 X85.598 Y90.34 E92.96007
G1 X87.233 Y89.035 E93.186
G1 X89.443 Y88.51 E93.43132
G1 X125.556 Y88.51 E97.33152
G1 X127.789 Y89.241 E97.58528
G1 X129.012 Y90.395 E97.76688
G1 X131.476 Y89.59 E98.04684
G1 X135.945 Y89.59 E98.52949
G1 X137.768 Y90.21 E98.73745
G1 X139.855 Y88.655 E99.01853
G1 X142.113 Y88.128 E99.26895
G1 X144.08 Y88.339 E99.4826
G1 X144.736 Y88.497 E99.55548
G1 X153.589 Y88.511 E100.5116
G1 X155.381 Y88.913 E100.70995
G1 X156.777 Y89.849 E100.89147
G1 X158.491 Y91.628 E101.15827
G1 X159.34 Y94.229 E101.45376
G1 X159.34 Y128.737 E105.18062
G1 X158.989 Y130.35 E105.3589
G1 X158.071 Y131.855 E105.5493
G1 X156.234 Y133.637 E105.8257
G1 X153.634 Y134.49 E106.12123
G1 X144.593 Y134.502 E107.09766
G1 X142.923 Y134.858 E107.28207
G1 X140.607 Y134.627 E107.53344
G1 X138.076 Y133.096 E107.8529
G1 X137.739 Y132.734 E107.90632
G1 X135.652 Y133.41 E108.14325
G1 X131.511 Y133.41 E108.59047
G1 X129.898 Y133.059 E108.76875
G1 X129.098 Y132.571 E108.86996
G1 X127.351 Y133.965 E109.11134
G1 X125.128 Y134.49 E109.35803
G1 X89.03 Y134.49 E113.25661
G1 X86.788 Y133.763 E113.51116
G1 X85.571 Y132.609 E113.69229
G1 X83.097 Y133.41 E113.97314
G1 X78.992 Y133.41 E114.41648
G1 X77.379 Y133.059 E114.59476
G1 X76.577 Y132.57 E114.69621
G1 X74.826 Y133.965 E114.93799
G1 X72.617 Y134.49 E115.18321
G1 X69.675 Y134.49 E115.50095
G1 X68.2 Y134.083 E115.6662
G1 X66.018 Y132.207 E115.97698
G1 X65.471 Y131.477 E116.0755
G1 X64.612 Y129.315 E116.32675
G1 X64.254 Y125.181 E116.77489
G1 X64.285 Y97.242 E119.7923
G1 X64.647 Y93.353 E120.21413
G1 X65.6 Y91.173 E120.47109
G1 X67.927 Y89.204 E120.8003
G0 F7200 X68.119 Y89.565
G1 F1800 X70.346 Y88.91 E121.051
G1 X72.968 Y88.91 E121.33418
G1 X75.077 Y89.596 E121.5737
G1 X76.472 Y90.917 E121.78119
G1 X76.74 Y90.731 E121.81642
G1 X79.027 Y89.99 E122.07606
G1 X83.323 Y89.99 E122.54002
G1 X85.329 Y90.672 E122.76885
G1 X85.588 Y90.861 E122.80348
G1 X87.414 Y89.403 E123.05584
G1 X89.489 Y88.91 E123.28618
G1 X125.492 Y88.91 E127.1745
G1 X127.58 Y89.594 E127.4118
G1 X128.985 Y90.918 E127.62029
G1 X129.245 Y90.739 E127.65439
G1 X131.539 Y89.99 E127.91501
G1 X135.878 Y89.99 E128.38362
G1 X137.924 Y90.686 E128.61702
G1 X138.1 Y90.462 E128.64779
G1 X140.027 Y89.026 E128.90734
G1 X142.139 Y88.533 E129.14157
G1 X143.986 Y88.728 E129.34215
G1 X144.687 Y88.897 E129.42003
G1 X153.545 Y88.911 E130.37669
G1 X155.22 Y89.287 E130.56209
G1 X156.52 Y90.158 E130.73109
G1 X158.139 Y91.839 E130.98315
G1 X158.94 Y94.292 E131.26184
G1 X158.94 Y128.693 E134.97715
G1 X158.612 Y130.201 E135.14382
G1 X157.758 Y131.601 E135.32093
G1 X156.021 Y133.286 E135.58229
G1 X153.57 Y134.09 E135.86088
G1 X144.552 Y134.102 E136.83482
G1 X142.902 Y134.454 E137.01703
G1 X140.736 Y134.238 E137.25212
G1 X138.283 Y132.754 E137.56175
G1 X137.869 Y132.271 E137.63046
G1 X135.588 Y133.01 E137.88941
G1 X131.555 Y133.01 E138.32498
G1 X130.047 Y132.682 E138.49165
G1 X129.067 Y132.084 E138.61564
G1 X127.171 Y133.597 E138.87761
G1 X125.083 Y134.09 E139.10932
G1 X89.094 Y134.09 E142.99613
G1 X86.996 Y133.41 E143.23432
G1 X85.593 Y132.079 E143.44318
G1 X85.32 Y132.269 E143.4791
G1 X83.033 Y133.01 E143.73874
G1 X79.036 Y133.01 E144.17041
G1 X77.528 Y132.682 E144.33708
G1 X76.546 Y132.083 E144.46131
G1 X74.646 Y133.597 E144.72369
G1 X72.571 Y134.09 E144.95403
G1 X69.731 Y134.09 E145.26075
G1 X68.392 Y133.72 E145.41078
G1 X66.312 Y131.932 E145.70701
G1 X65.824 Y131.281 E145.79488
G1 X65.005 Y129.219 E146.0345
G1 X64.654 Y125.181 E146.47225
G1 X64.683 Y97.279 E149.48567
G1 X65.039 Y93.453 E149.90066
G1 X65.929 Y91.418 E150.14054
G1 X68.119 Y89.565 E150.45036
G0 F7200 X68.311 Y89.926
G1 F1800 X70.405 Y89.31 E150.6861
G1 X72.905 Y89.31 E150.9561
G1 X74.866 Y89.948 E151.17881
G1 X76.454 Y91.451 E151.41496
G1 X76.863 Y91.112 E151.47233
G1 X79.091 Y90.39 E151.72527
G1 X83.256 Y90.39 E152.17509
G1 X85.2 Y91.051 E152.39685
G1 X85.64 Y91.441 E152.46035
G1 X85.85 Y91.161 E152.49815
G1 X87.594 Y89.771 E152.73901
G1 X89.535 Y89.31 E152.95446
G1 X125.429 Y89.31 E156.83102
G1 X127.371 Y89.946 E157.05171
G1 X128.968 Y91.451 E157.28871
G1 X129.369 Y91.119 E157.34493
G1 X131.602 Y90.39 E157.59863
G1 X135.811 Y90.39 E158.0532
G1 X137.755 Y91.051 E158.27495
G1 X138.022 Y91.263 E158.31177
G1 X138.339 Y90.783 E158.3739
G1 X140.199 Y89.397 E158.62442
G1 X142.165 Y88.938 E158.84246
G1 X143.892 Y89.117 E159.02997
G1 X144.638 Y89.297 E159.11285
G1 X153.502 Y89.311 E160.07016
G1 X155.059 Y89.66 E160.24249
G1 X156.26 Y90.465 E160.39864
G1 X157.788 Y92.051 E160.63649
G1 X158.54 Y94.355 E160.89824
G1 X158.54 Y128.649 E164.60199
G1 X158.235 Y130.052 E164.75706
G1 X157.445 Y131.347 E164.92089
G1 X155.808 Y132.935 E165.1672
G1 X153.506 Y133.69 E165.42885
G1 X144.51 Y133.702 E166.40042
G1 X142.88 Y134.05 E166.58042
G1 X140.865 Y133.849 E166.79912
G1 X138.545 Y132.445 E167.09199
G1 X137.931 Y131.73 E167.19378
G1 X137.663 Y131.917 E167.22907
G1 X135.524 Y132.61 E167.47191
G1 X131.599 Y132.61 E167.89581
G1 X130.196 Y132.305 E168.05087
G1 X128.947 Y131.543 E168.20888
G1 X128.72 Y131.848 E168.24994
G1 X126.99 Y133.229 E168.48901
G1 X125.038 Y133.69 E168.70563
G1 X89.155 Y133.69 E172.58099
G1 X87.206 Y133.058 E172.80228
G1 X85.61 Y131.544 E173.03986
G1 X85.197 Y131.888 E173.09791
G1 X82.969 Y132.61 E173.35085
G1 X79.08 Y132.61 E173.77087
G1 X77.677 Y132.305 E173.92593
G1 X76.431 Y131.545 E174.08355
G1 X76.212 Y131.838 E174.12306
G1 X74.466 Y133.229 E174.36415
G1 X72.525 Y133.69 E174.57961
G1 X69.786 Y133.69 E174.87543
G1 X68.584 Y133.358 E175.0101
G1 X66.606 Y131.657 E175.29185
G1 X66.177 Y131.085 E175.36907
G1 X65.398 Y129.123 E175.59706
G1 X65.054 Y125.181 E176.02442
G1 X65.081 Y97.316 E179.03384
G1 X65.431 Y93.556 E179.44167
G1 X66.259 Y91.662 E179.66492
G1 X68.311 Y89.926 E179.9552
G0 F7200 X68.503 Y90.287
G1 F1800 X70.464 Y89.71 E180.17597
G1 X72.842 Y89.71 E180.43279
G1 X74.655 Y90.3 E180.6387
G1 X76.214 Y91.775 E180.87049
G1 X76.401 Y92.061 E180.9074
G1 X76.986 Y91.493 E180.99546
G1 X79.155 Y90.79 E181.24171
G1 X83.189 Y90.79 E181.67738
G1 X85.071 Y91.43 E181.89206
G1 X85.697 Y92.074 E181.98906
G1 X86.099 Y91.474 E182.06706
G1 X87.774 Y90.139 E182.29839
G1 X89.581 Y89.71 E182.49897
G1 X125.366 Y89.71 E186.36375
G1 X127.162 Y90.298 E186.56785
G1 X128.747 Y91.792 E186.80309
G1 X128.925 Y92.05 E186.83694
G1 X129.493 Y91.499 E186.9224
G1 X131.665 Y90.79 E187.16916
G1 X135.744 Y90.79 E187.60969
G1 X137.626 Y91.43 E187.82438
G1 X138.081 Y91.899 E187.89495
G1 X138.635 Y91.062 E188.00336
G1 X140.371 Y89.768 E188.2372
G1 X142.192 Y89.343 E188.43915
G1 X143.798 Y89.506 E188.61349
G1 X144.589 Y89.697 E188.70137
G1 X153.459 Y89.711 E189.65934
G1 X154.898 Y90.033 E189.81859
G1 X156.003 Y90.774 E189.96228
G1 X157.436 Y92.262 E190.18539
G1 X158.14 Y94.418 E190.43034
G1 X158.14 Y128.605 E194.12253
G1 X157.858 Y129.903 E194.26599
G1 X157.132 Y131.093 E194.41654
G1 X155.595 Y132.584 E194.6478
G1 X153.442 Y133.29 E194.89251
G1 X144.468 Y133.302 E195.8617
G1 X142.858 Y133.646 E196.03951
G1 X140.994 Y133.46 E196.24182
G1 X138.807 Y132.137 E196.51787
G1 X137.977 Y131.169 E196.65558
G1 X137.54 Y131.536 E196.71721
G1 X135.46 Y132.21 E196.95335
G1 X131.643 Y132.21 E197.36559
G1 X130.345 Y131.928 E197.50904
G1 X129.155 Y131.202 E197.65959
G1 X128.884 Y130.923 E197.7016
G1 X128.47 Y131.535 E197.7814
G1 X126.809 Y132.861 E198.01094
G1 X124.993 Y133.29 E198.21247
G1 X89.219 Y133.29 E202.07606
G1 X87.414 Y132.705 E202.28098
G1 X85.893 Y131.263 E202.50734
G1 X85.66 Y130.938 E202.55053
G1 X85.074 Y131.507 E202.63874
G1 X82.905 Y132.21 E202.88499
G1 X79.124 Y132.21 E203.29334
G1 X77.826 Y131.928 E203.43679
G1 X76.638 Y131.203 E203.5871
G1 X76.366 Y130.923 E203.62926
G1 X75.963 Y131.525 E203.7075
G1 X74.286 Y132.861 E203.93906
G1 X72.479 Y133.29 E204.13964
G1 X69.841 Y133.29 E204.42455
G1 X68.776 Y132.996 E204.54387
G1 X66.9 Y131.383 E204.81107
G1 X66.53 Y130.889 E204.87773
G1 X65.791 Y129.027 E205.09408
G1 X65.454 Y125.181 E205.51104
G1 X65.479 Y97.353 E208.51647
G1 X65.823 Y93.656 E208.91747
G1 X66.588 Y91.907 E209.12364
G1 X68.503 Y90.287 E209.39454
G0 F7200 X68.695 Y90.648
G1 F1800 X70.523 Y90.11 E209.60034
G1 X72.779 Y90.11 E209.84398
G1 X74.444 Y90.652 E210.03309
G1 X75.939 Y92.066 E210.25533
G1 X76.315 Y92.702 E210.33512
G1 X77.198 Y91.845 E210.46802
G1 X79.219 Y91.19 E210.69746
G1 X83.122 Y91.19 E211.11899
G1 X84.851 Y91.778 E211.31622
G1 X85.754 Y92.707 E211.45614
G1 X86.395 Y91.749 E211.58063
G1 X87.954 Y90.507 E211.7959
G1 X89.627 Y90.11 E211.9816
G1 X125.303 Y90.11 E215.83461
G1 X126.953 Y90.65 E216.02211
G1 X128.439 Y92.051 E216.24268
G1 X128.863 Y92.668 E216.32353
G1 X129.706 Y91.85 E216.45039
G1 X131.728 Y91.19 E216.68011
G1 X135.677 Y91.19 E217.1066
G1 X137.406 Y91.778 E217.30384
G1 X138.141 Y92.534 E217.41771
G1 X138.931 Y91.341 E217.57224
G1 X140.543 Y90.139 E217.78941
G1 X142.22 Y89.748 E217.97538
G1 X143.704 Y89.895 E218.13644
G1 X144.54 Y90.097 E218.22933
G1 X153.416 Y90.111 E219.18794
G1 X154.737 Y90.406 E219.33412
G1 X155.743 Y91.081 E219.46496
G1 X157.085 Y92.474 E219.67386
G1 X157.74 Y94.481 E219.90187
G1 X157.74 Y128.561 E223.58251
G1 X157.481 Y129.754 E223.71435
G1 X156.819 Y130.839 E223.85162
G1 X155.382 Y132.233 E224.06784
G1 X153.378 Y132.89 E224.29561
G1 X144.426 Y132.902 E225.26242
G1 X142.836 Y133.242 E225.43803
G1 X141.123 Y133.071 E225.62395
G1 X139.069 Y131.828 E225.88324
G1 X138.294 Y130.933 E226.0111
G1 X138.126 Y130.467 E226.0646
G1 X137.417 Y131.155 E226.1713
G1 X135.396 Y131.81 E226.40074
G1 X131.687 Y131.81 E226.80132
G1 X130.494 Y131.551 E226.93316
G1 X129.409 Y130.889 E227.07043
G1 X128.828 Y130.291 E227.16048
G1 X128.175 Y131.258 E227.28649
G1 X126.628 Y132.493 E227.50028
G1 X124.948 Y132.89 E227.68672
G1 X89.28 Y132.89 E231.53886
G1 X87.624 Y132.353 E231.72688
G1 X86.168 Y130.973 E231.94353
G1 X85.723 Y130.319 E232.02897
G1 X84.862 Y131.155 E232.15858
G1 X82.841 Y131.81 E232.38802
G1 X79.168 Y131.81 E232.78471
G1 X77.975 Y131.551 E232.91655
G1 X76.892 Y130.89 E233.05358
G1 X76.309 Y130.289 E233.14401
G1 X75.665 Y131.251 E233.26904
G1 X74.106 Y132.493 E233.48431
G1 X72.433 Y132.89 E233.67001
G1 X69.896 Y132.89 E233.94401
G1 X68.968 Y132.634 E234.04797
G1 X67.194 Y131.108 E234.3007
G1 X66.882 Y130.692 E234.35686
G1 X66.184 Y128.932 E234.56134
